modules/framework7-icons/icons/arrow_down_fill.svg

<?xml version="1.0" encoding="UTF-8"?>
<svg width="50px" height="50px" viewBox="0 0 50 50" version="1.1" xmlns="http://www.w3.org/2000/svg" xmlns:xlink="http://www.w3.org/1999/xlink">
    <!-- Generator: Sketch 40.1 (33804) - http://www.bohemiancoding.com/sketch -->
    <title>arrow_down_fill</title>
    <desc>Created with Sketch.</desc>
    <defs></defs>
    <g id="Page-1" stroke="none" stroke-width="1" fill="none" fill-rule="evenodd">
        <g id="arrow_down_fill" fill="#000000">
            <path d="M25,50 C38.8071187,50 50,38.8071187 50,25 C50,11.1928813 38.8071187,0 25,0 C11.1928813,0 0,11.1928813 0,25 C0,38.8071187 11.1928813,50 25,50 Z M22.9528065,32.1715729 L22.9528065,14.0008642 C22.9528065,12.8958174 23.8405362,12 24.9528065,12 C26.057376,12 26.9528065,12.9016273 26.9528065,14.0008642 L26.9528065,32.1715729 L33.4918128,25.6325666 C34.2709437,24.8534357 35.5302736,24.8495451 36.3167675,25.636039 C37.0978161,26.4170876 37.0998015,27.6814322 36.3202399,28.4609937 L26.4138002,38.3674334 C26.0018246,38.7794091 25.4555899,38.974635 24.91599,38.9508723 L24.91599,38.9508723 C24.4007466,38.9547034 23.8847092,38.7603298 23.4918128,38.3674334 L13.5853731,28.4609937 C12.8062423,27.6818629 12.8023516,26.4225329 13.5888455,25.636039 C14.3698941,24.8549904 15.6342387,24.853005 16.4138002,25.6325666 L22.9528065,32.1715729 L22.9528065,32.1715729 Z" id="Combined-Shape"></path>
        </g>
    </g>
</svg>

<svg width="50" height="50" xmlns="http://www.w3.org/2000/svg"><path d="M25 50c13.807 0 25-11.193 25-25S38.807 0 25 0 0 11.193 0 25s11.193 25 25 25zm-2.047-17.828V14c0-1.105.888-2.001 2-2.001 1.104 0 2 .902 2 2v18.172l6.539-6.54a1.993 1.993 0 0 1 2.825.004c.78.781.783 2.045.003 2.825l-9.906 9.906a1.988 1.988 0 0 1-1.498.584 1.986 1.986 0 0 1-1.424-.584l-9.907-9.906a1.993 1.993 0 0 1 .004-2.825 1.997 1.997 0 0 1 2.825-.003l6.539 6.539z" fill-rule="evenodd"/></svg>
